_inc/systems/logos/auto-adult.svg

<?xml version="1.0" encoding="utf-8"?>
<svg version="1.1" id="adult" x="0px" y="0px" viewBox="0 0 200 40" xmlns="http://www.w3.org/2000/svg">
  <path d="M 74.475 29.111 L 68.475 29.111 L 76.365 10.361 L 85.185 10.361 L 86.505 29.111 L 80.475 29.111 L 80.355 26.141 L 75.645 26.141 Z M 79.605 16.121 L 77.505 21.371 L 79.905 21.371 L 79.905 16.121 Z M 88.485 29.111 L 91.785 10.361 L 99.765 10.361 C 102.345 10.361 104.18 10.816 105.27 11.726 C 106.36 12.636 106.905 14.111 106.905 16.151 C 106.905 17.191 106.785 18.391 106.545 19.751 C 105.945 23.111 104.92 25.511 103.47 26.951 C 102.02 28.391 99.685 29.111 96.465 29.111 Z M 98.985 15.161 L 96.615 15.161 L 95.025 24.311 L 97.395 24.311 C 98.175 24.311 98.755 24.216 99.135 24.026 C 99.515 23.836 99.765 23.401 99.885 22.721 L 100.935 16.751 C 100.955 16.631 100.965 16.471 100.965 16.271 C 100.965 15.811 100.805 15.511 100.485 15.371 C 100.165 15.231 99.665 15.161 98.985 15.161 Z M 116.415 10.361 L 113.925 24.431 L 115.965 24.431 C 116.665 24.431 117.165 24.336 117.465 24.146 C 117.765 23.956 117.975 23.521 118.095 22.841 L 120.315 10.361 L 126.015 10.361 L 124.155 20.891 C 123.855 22.591 123.51 23.961 123.12 25.001 C 122.73 26.041 122.185 26.921 121.485 27.641 C 120.785 28.361 119.92 28.861 118.89 29.141 C 117.86 29.421 116.555 29.561 114.975 29.561 C 112.555 29.561 110.86 29.196 109.89 28.466 C 108.92 27.736 108.435 26.481 108.435 24.701 C 108.435 23.721 108.575 22.451 108.855 20.891 L 110.715 10.361 Z M 137.445 29.111 L 126.045 29.111 L 129.345 10.361 L 135.045 10.361 L 132.585 24.311 L 138.285 24.311 Z M 152.655 15.161 L 148.515 15.161 L 146.085 29.111 L 140.385 29.111 L 142.815 15.161 L 138.705 15.161 L 139.575 10.361 L 153.525 10.361 Z" style="white-space: pre; fill: rgb(255, 255, 255);"/>
  <path d="M 57.503 23.426 L 56.167 24.691 C 56.026 24.902 55.788 25 55.538 25 L 53.975 25 L 53.975 26.562 C 53.975 27.082 53.557 27.5 53.038 27.5 L 51.475 27.5 L 51.475 29.062 C 51.475 29.582 51.057 30 50.538 30 L 47.413 30 C 46.895 30 46.475 29.582 46.475 29.062 L 46.475 25.937 C 46.475 25.687 46.574 25.449 46.75 25.273 L 53.05 18.973 C 52.839 18.312 52.725 17.605 52.725 16.875 C 52.725 13.078 55.804 10 59.6 10 C 63.397 10 66.475 13.078 66.475 16.875 C 66.475 20.672 63.397 23.75 59.6 23.75 C 58.87 23.75 58.163 23.637 57.503 23.426 Z M 61.163 16.875 C 62.026 16.875 62.725 16.176 62.725 15.312 C 62.725 14.449 62.026 13.75 61.163 13.75 C 60.3 13.75 59.6 14.449 59.6 15.312 C 59.6 16.176 60.3 16.875 61.163 16.875 Z" style="fill: rgb(221, 221, 221);"/>
</svg>

<svg xmlns="http://www.w3.org/2000/svg" viewBox="0 0 200 40"><path d="M74.47 29.11h-6l7.9-18.75h8.81l1.32 18.75h-6.03l-.11-2.97h-4.72Zm5.14-12.99-2.1 5.25h2.4v-5.25Zm8.88 13 3.3-18.76h7.97q3.87 0 5.51 1.37 1.64 1.36 1.64 4.42 0 1.56-.36 3.6-.9 5.04-3.08 7.2-2.17 2.16-7 2.16Zm10.5-13.96h-2.37l-1.6 9.15h2.38q1.16 0 1.73-.28.58-.3.76-1.3l1.05-5.98q.03-.18.03-.48 0-.69-.48-.9a4 4 0 0 0-1.5-.2m17.43-4.8-2.5 14.07h2.05q1.05 0 1.5-.28.44-.3.63-1.3l2.22-12.49h5.7l-1.86 10.53q-.45 2.55-1.04 4.11a8 8 0 0 1-1.64 2.64 5.6 5.6 0 0 1-2.59 1.5q-1.54.42-3.92.42-3.62 0-5.08-1.1-1.45-1.09-1.45-3.76 0-1.47.42-3.8l1.86-10.54Zm21.02 18.75h-11.4l3.3-18.75h5.7l-2.45 13.95h5.7Zm15.22-13.95h-4.15l-2.42 13.95h-5.7l2.43-13.95h-4.11l.86-4.8h13.96Z" style="white-space:pre;fill:#fff"/><path d="m57.5 23.43-1.33 1.26a.7.7 0 0 1-.63.31h-1.56v1.56c0 .52-.42.94-.94.94h-1.56v1.56c0 .52-.42.94-.94.94H47.4a.94.94 0 0 1-.93-.94v-3.12q0-.4.27-.67l6.3-6.3A6.9 6.9 0 0 1 59.6 10a6.87 6.87 0 1 1-2.1 13.43m3.66-6.55a1.56 1.56 0 1 0 0-3.13 1.56 1.56 0 0 0 0 3.13" style="fill:#ddd"/></svg>
